!!!OTL: 250. Olandre (lyondre)
!!!Genre:	Olandre (lyondre)
!!!Mode:	Minor
!!!Listening/dance:	dance
!!!One_Mode:	no
**kern
*thru
*I"P1
*clefG2
*k[b-e-]
*g:
*M3/8
*>A
=1
!LO:TX:a:i:t=G-minor
16g'LL
(16b-
16dd)
(16g
16b-)
16dd'JJ
=2
16ggLL
16dd
(8qff/
16ee-)
16ccJJ
(16qqcc/LL
16qqee-/JJ
8dd)
=3
16g'LL
(16b-
16dd)
(16g
16b-)
16dd'JJ
=4
(16ccLL
16b-)
(16b-
16aJJ)
24b-LL
24a
24gJJ
*>A
=5:|!|:
=1
!LO:TX:a:i:t=G-minor
16g'LL
(16b-
16dd)
(16g
16b-)
16dd'JJ
=2
16ggLL
16dd
(8qff/
16ee-)
16ccJJ
(16qqcc/LL
16qqee-/JJ
8dd)
=3
16g'LL
(16b-
16dd)
(16g
16b-)
16dd'JJ
=4
(16ccLL
16b-)
(16b-
16aJJ)
24b-LL
24a
24gJJ
*>B
!!!Begin-Modulation
=5:|!|:
*g:
!LO:TX:a:i:t=G-minor
(16b-LL
16aJJ)
24b-LL
24a
24gJJ
8g
==
*-
